packages/icons/svg/Fill/person-delete.svg

<svg width="24" height="24" viewBox="0 0 24 24" fill="none" xmlns="http://www.w3.org/2000/svg">
<g id="Icon/Fill/person-delete">
<path id="Mask" fill-rule="evenodd" clip-rule="evenodd" d="M10 11C12.206 11 14 9.206 14 7C14 4.794 12.206 3 10 3C7.794 3 6 4.794 6 7C6 9.206 7.794 11 10 11ZM20.4648 7.5L21.1978 6.768C21.6008 6.364 21.6008 5.705 21.1978 5.302C20.7948 4.899 20.1358 4.899 19.7328 5.302L18.9998 6.035L18.2678 5.302C17.8638 4.899 17.2048 4.899 16.8018 5.302C16.3998 5.705 16.3998 6.364 16.8018 6.768L17.5348 7.5L16.8018 8.232C16.3998 8.636 16.3998 9.295 16.8018 9.698C17.2048 10.101 17.8638 10.101 18.2678 9.698L18.9998 8.965L19.7328 9.698C20.1358 10.101 20.7948 10.101 21.1978 9.698C21.6008 9.295 21.6008 8.636 21.1978 8.232L20.4648 7.5ZM17 20C17 20.553 16.553 21 16 21H4C3.447 21 3 20.553 3 20C3 16.141 6.141 13 10 13C13.859 13 17 16.141 17 20Z" fill="#000000"/>
</g>
</svg>

<svg fill="none" height="24" viewBox="0 0 24 24" width="24" xmlns="http://www.w3.org/2000/svg"><path clip-rule="evenodd" d="m10 11c2.206 0 4-1.794 4-4s-1.794-4-4-4-4 1.794-4 4 1.794 4 4 4zm10.4648-3.50013.733-.732c.403-.404.403-1.063 0-1.466s-1.062-.403-1.465 0l-.733.733-.732-.733c-.404-.403-1.063-.403-1.466 0-.402.403-.402 1.062 0 1.466l.733.732-.733.732c-.402.404-.402 1.063 0 1.466.403.40303 1.062.40303 1.466 0l.732-.733.733.733c.403.40303 1.062.40303 1.465 0 .403-.403.403-1.062 0-1.466zm-3.4648 12.50003c0 .553-.447 1-1 1h-12c-.553 0-1-.447-1-1 0-3.859 3.141-7 7-7s7 3.141 7 7z" fill="#6b7280" fill-rule="evenodd"/></svg>
